polaris-icons/icons/newicons/PaymentsMajor.svg

<svg width="20" height="20" viewBox="0 0 20 20" fill="none" xmlns="http://www.w3.org/2000/svg">
<path fill-rule="evenodd" clip-rule="evenodd" d="M10.4196 4H14.0804C14.6146 3.99999 15.0604 3.99998 15.4247 4.02974C15.8046 4.06078 16.1612 4.12789 16.4985 4.29973C17.0159 4.56338 17.4366 4.98408 17.7003 5.50153C17.8721 5.83879 17.9392 6.19545 17.9703 6.57533C18 6.93956 18 7.3854 18 7.91955V8.58045C18 9.1146 18 9.56044 17.9703 9.92467C17.9392 10.3046 17.8721 10.6612 17.7003 10.9985C17.4366 11.5159 17.0159 11.9366 16.4985 12.2003C16.1612 12.3721 15.8046 12.4392 15.4247 12.4703C15.0604 12.5 14.6146 12.5 14.0805 12.5H12.2986C12.2186 12.5834 12.1303 12.6604 12.0341 12.7297L9.3045 14.695C8.73887 15.1024 8.37418 15.365 7.96933 15.554C7.61076 15.7215 7.23267 15.8434 6.84386 15.9171C6.40487 16.0002 5.95544 16.0002 5.25839 16.0001L3.75 16.0001C3.33579 16.0001 3 15.6643 3 15.2501C3 14.8358 3.33579 14.5001 3.75 14.5001H5.1857C5.97967 14.5001 6.28085 14.497 6.56469 14.4433C6.83072 14.3929 7.08941 14.3094 7.33475 14.1949C7.5965 14.0727 7.84269 13.8991 8.48702 13.4352L11.1576 11.5124C11.2997 11.4101 11.3641 11.2308 11.3196 11.0614C11.2606 10.8374 11.0325 10.7025 10.8079 10.7587L5.9319 11.9777C5.53006 12.0781 5.12285 11.8338 5.02239 11.432C4.92193 11.0301 5.16625 10.6229 5.5681 10.5224L6.5 10.2895L6.5 8.0003C5.91093 8.00186 5.67852 8.01151 5.46739 8.0622C5.23781 8.11732 5.01833 8.20823 4.81702 8.33159C4.60756 8.45995 4.41854 8.64215 3.87444 9.18625L3.28033 9.78036C2.98744 10.0733 2.51256 10.0733 2.21967 9.78036C1.92678 9.48747 1.92678 9.0126 2.21967 8.7197L2.8742 8.06515C3.33479 7.6043 3.65361 7.28529 4.03327 7.05263C4.36879 6.84702 4.73458 6.69551 5.11722 6.60365C5.52187 6.5065 5.94567 6.50025 6.53642 6.50001C6.57015 6.1482 6.63929 5.81641 6.79973 5.50153C7.06338 4.98408 7.48408 4.56338 8.00153 4.29973C8.33879 4.12789 8.69545 4.06078 9.07533 4.02974C9.43956 3.99998 9.88542 3.99999 10.4196 4ZM14.05 11H12.8261C12.8167 10.8931 12.7981 10.7859 12.7702 10.6797C12.5022 9.66154 11.4654 9.04812 10.4441 9.30346L8 9.91447L8 8.5H16.5L16.5 8.55C16.5 9.12243 16.4994 9.50664 16.4752 9.80252C16.4518 10.0896 16.4099 10.2269 16.3638 10.3175C16.2439 10.5527 16.0527 10.7439 15.8175 10.8638C15.7269 10.9099 15.5896 10.9518 15.3025 10.9752C15.0066 10.9994 14.6224 11 14.05 11ZM16.4531 6.5H8.04686C8.07056 6.34132 8.10225 6.24923 8.13624 6.18251C8.25608 5.94731 8.44731 5.75608 8.68251 5.63624C8.77307 5.5901 8.91036 5.54822 9.19748 5.52476C9.49336 5.50058 9.87757 5.5 10.45 5.5H14.05C14.6224 5.5 15.0066 5.50058 15.3025 5.52476C15.5896 5.54822 15.7269 5.5901 15.8175 5.63624C16.0527 5.75608 16.2439 5.94731 16.3638 6.18251C16.3978 6.24923 16.4294 6.34132 16.4531 6.5Z" fill="black"/>
</svg>

<svg viewBox="0 0 20 20" fill="none" xmlns="http://www.w3.org/2000/svg"><path fill-rule="evenodd" clip-rule="evenodd" d="M10.42 4h3.66c.535 0 .98 0 1.345.03.38.03.736.098 1.073.27a2.75 2.75 0 0 1 1.202 1.202c.172.337.24.693.27 1.073.03.365.03.81.03 1.345v.66c0 .535 0 .98-.03 1.345-.03.38-.098.736-.27 1.073a2.751 2.751 0 0 1-1.201 1.202c-.338.172-.694.24-1.074.27-.365.03-.81.03-1.345.03h-1.781c-.08.083-.169.16-.265.23l-2.73 1.965c-.565.407-.93.67-1.335.859-.358.168-.736.29-1.125.363-.44.083-.889.083-1.586.083h-1.508a.75.75 0 0 1 0-1.5h1.436c.794 0 1.095-.003 1.379-.057.266-.05.524-.134.77-.248.261-.122.508-.296 1.152-.76l2.67-1.923a.423.423 0 0 0-.35-.753l-4.875 1.219a.75.75 0 0 1-.364-1.456l.932-.232v-2.29c-.59.002-.821.012-1.033.062a2.25 2.25 0 0 0-.65.27c-.21.128-.398.31-.943.854l-.594.594a.75.75 0 1 1-1.06-1.06l.654-.655c.46-.46.78-.78 1.16-1.012a3.75 3.75 0 0 1 1.083-.45c.405-.096.829-.103 1.42-.103.033-.352.102-.684.263-.998a2.75 2.75 0 0 1 1.202-1.202c.337-.172.693-.24 1.073-.27.365-.03.81-.03 1.345-.03Zm3.63 7h-1.224a1.924 1.924 0 0 0-2.382-1.697l-2.444.611v-1.414h8.5v.05c0 .572 0 .957-.025 1.253-.023.287-.065.424-.111.514a1.25 1.25 0 0 1-.546.547c-.091.046-.228.088-.515.111-.296.024-.68.025-1.253.025Zm2.403-4.5h-8.406c.024-.159.055-.25.09-.317a1.25 1.25 0 0 1 .546-.547c.09-.046.227-.088.514-.111.296-.024.68-.025 1.253-.025h3.6c.572 0 .957 0 1.252.025.288.023.425.065.516.111.235.12.426.311.546.547.034.066.065.158.09.317Z" fill="#5C5F62"/></svg>
